X: 330
T: Tianshan yuge beidouxing
L: 1/8
M: 2/4
K: F
d2c2 [I:setbarnb 1]| 
A2G2 | 
A3=B | 
A4 | 
G Ac2 | 
c AG2 | 
A G F E | 
D2z2 | 
d2A c | 
d2A c | 
d2g e | 
d2d c | 
G2c2 | 
A2A G | 
A G F E | 
D2z2 |]

@@@ Tune index: 9204
